<?xml version='1.0' encoding='UTF-8'?>
<map version="1.10" tiledversion="1.11.0" orientation="orthogonal" renderorder="right-down" width="68" height="46" tilewidth="16" tileheight="16" infinite="0" nextlayerid="4" nextobjectid="64">
 <tileset firstgid="1" source="ArenaTileset.tsx" />
 <tileset firstgid="229" source="Objekte.tsx" />
 <tileset firstgid="481" source="ObjekteGross.tsx" />
 <tileset firstgid="801" source="ObjekteDetails.tsx" />
 <tileset firstgid="1305" source="AnimierteObjekte.tsx" />
 <tileset firstgid="1798" source="Charakter1.tsx" />
 <tileset firstgid="2278" source="Charakter2.tsx" />
 <tileset firstgid="2758" source="Charakter3.tsx" />
 <tileset firstgid="3238" source="CharakterDetails.tsx" />
 <tileset firstgid="3302" source="Gegner1.tsx" />
 <tileset firstgid="3782" source="Gegner2.tsx" />
 <tileset firstgid="4262" source="Gegner3.tsx" />
 <tileset firstgid="4742" source="Gegner4.tsx" />
 <layer id="1" name="Boden" width="68" height="46">
  <data encoding="csv">
0,0,0,0,0,0,0,0,0,0,0,0,0,0,0,0,0,0,0,0,0,0,0,0,0,0,0,0,0,0,0,0,0,0,0,0,0,0,0,0,0,0,0,0,0,0,0,0,0,0,0,0,0,0,0,0,0,0,0,0,0,0,0,0,0,0,0,0,
0,0,0,0,0,0,0,0,0,0,0,0,0,0,0,0,0,0,0,0,0,0,0,0,0,0,0,0,0,0,0,0,0,0,0,0,0,0,0,0,0,0,0,0,0,0,0,0,0,0,0,0,0,0,0,0,0,0,0,0,0,0,0,0,0,0,0,0,
0,0,21,23,23,23,23,23,23,23,23,23,23,23,23,23,23,23,23,25,23,23,23,23,23,23,23,23,23,23,23,23,23,23,23,23,23,23,23,23,23,23,23,23,23,23,23,23,23,23,23,23,23,23,23,23,23,23,23,23,23,23,23,23,23,25,0,0,
0,0,59,61,79,41,41,41,80,43,62,60,81,41,42,60,79,41,43,59,42,42,79,60,41,43,80,79,42,41,41,80,79,41,41,60,42,42,41,43,42,79,42,41,42,62,41,42,79,79,42,41,41,41,42,79,60,41,41,41,43,79,41,60,42,63,0,0,
0,0,59,61,42,43,41,60,42,41,41,41,60,60,60,42,79,41,80,59,41,42,80,41,80,62,60,41,41,41,41,60,60,60,41,81,41,43,79,42,60,80,81,43,41,41,79,41,42,79,81,41,60,42,60,41,60,61,43,41,41,80,42,80,42,63,0,0,
0,0,59,79,60,43,41,42,41,81,41,43,42,41,43,42,41,43,43,21,60,60,41,60,41,41,79,79,41,43,41,41,43,79,42,41,81,43,41,60,41,41,60,43,60,41,62,43,41,42,41,43,62,41,41,41,43,41,61,41,41,43,41,60,79,63,0,0,
0,0,59,79,41,60,80,41,62,41,41,79,60,79,41,41,41,41,62,41,79,61,41,43,60,60,43,79,41,62,41,80,41,60,25,23,23,23,23,21,41,41,81,43,41,43,97,61,81,41,41,43,42,41,60,41,41,41,41,79,101,97,43,41,41,63,0,0,
0,0,59,60,41,43,60,41,41,79,60,41,60,79,41,41,41,41,43,41,42,42,60,80,80,41,41,79,41,41,41,43,41,81,41,61,43,43,60,41,60,61,79,79,43,60,59,41,43,61,79,41,101,97,79,41,42,80,43,41,25,21,41,41,60,63,0,0,
0,0,59,41,41,60,41,60,42,41,43,41,41,79,41,61,41,62,79,97,60,79,41,42,41,79,79,79,79,43,79,42,43,60,43,60,60,42,41,41,41,41,41,41,43,79,59,41,41,60,79,60,25,21,60,81,41,41,41,43,79,62,42,43,43,63,0,0,
0,0,59,81,41,79,43,41,42,79,79,41,79,41,43,41,42,41,41,59,61,80,62,79,42,41,41,41,41,60,79,79,79,41,42,41,41,81,43,41,80,43,41,25,23,23,21,61,41,60,60,60,41,43,60,41,43,79,41,41,60,79,61,41,79,63,0,0,
0,0,59,41,42,79,42,43,41,41,79,42,42,79,41,41,43,43,42,59,79,60,60,42,43,42,43,41,41,41,43,41,60,60,41,41,41,62,42,42,41,43,43,62,81,60,79,60,60,43,41,41,41,42,60,41,41,41,60,42,60,79,41,62,62,63,0,0,
0,0,59,41,79,60,43,60,61,60,62,81,79,80,42,42,42,41,42,59,61,41,41,79,80,41,79,41,41,41,41,41,101,97,41,43,101,97,79,41,42,42,41,41,41,42,79,41,42,41,60,41,61,60,41,81,41,41,42,41,41,79,41,41,42,63,0,0,
0,0,59,43,79,41,42,41,41,42,41,41,43,62,41,41,60,60,41,59,43,41,41,60,41,41,79,41,41,41,60,79,25,21,79,41,25,21,43,60,42,79,41,80,42,42,42,79,41,60,41,43,41,41,101,99,97,42,41,41,41,41,41,41,41,63,0,0,
0,0,59,60,80,60,60,79,42,41,41,79,41,41,81,41,62,41,62,59,41,41,42,101,97,41,41,101,97,42,43,41,79,43,62,62,43,43,62,79,80,60,79,43,41,41,43,43,81,42,41,42,79,41,63,210,59,43,43,41,60,79,42,41,41,63,0,0,
0,0,59,41,79,81,60,43,42,60,41,43,79,42,41,60,79,43,43,59,60,81,43,63,59,43,41,63,59,79,60,79,42,62,81,42,43,80,81,41,41,41,41,41,43,79,42,41,61,41,41,43,60,79,25,23,21,80,41,62,41,41,60,41,43,63,0,0,
0,0,97,23,23,23,23,23,23,23,23,23,23,23,23,23,23,23,23,21,60,79,60,25,21,79,79,25,21,80,43,60,41,60,61,41,42,79,43,60,81,60,80,41,60,62,42,41,41,62,41,41,42,79,62,41,80,42,41,43,41,41,60,60,79,63,0,0,
0,0,59,42,41,81,79,79,60,41,42,41,42,41,79,80,81,42,79,60,43,41,42,60,43,80,43,79,60,41,41,41,41,60,60,80,41,62,41,41,41,41,80,41,62,42,41,79,101,97,79,41,79,60,41,41,41,41,41,43,62,43,79,60,41,63,0,0,
0,0,59,41,41,43,42,79,42,79,43,42,43,79,41,41,62,43,62,42,60,43,60,41,43,60,41,41,41,43,41,43,43,101,99,97,41,42,41,101,97,43,41,60,42,41,43,42,63,59,43,41,41,41,79,43,42,79,43,43,60,62,41,42,42,63,0,0,
0,0,59,61,41,80,81,60,43,41,81,42,80,41,41,41,41,41,41,80,60,60,60,60,62,41,79,80,81,41,41,60,43,63,210,59,43,41,79,63,59,42,41,42,79,41,79,81,25,21,41,41,41,41,41,41,43,60,41,60,79,79,42,79,60,63,0,0,
0,0,59,43,41,60,42,60,60,61,60,62,79,42,41,43,42,60,62,41,43,41,79,41,61,79,60,79,60,60,42,41,42,63,210,59,41,41,42,63,59,60,43,41,41,43,43,43,41,41,79,60,80,43,42,41,42,41,61,41,41,41,79,42,79,63,0,0,
0,0,59,43,81,79,43,41,41,41,41,41,42,79,41,80,41,43,42,41,80,79,61,42,41,60,62,81,41,60,41,41,79,25,23,21,80,62,62,25,21,79,43,41,41,79,41,41,60,60,41,60,41,42,60,79,42,41,41,42,79,41,79,60,41,63,0,0,
0,0,59,42,62,41,79,42,42,43,60,41,41,41,61,41,42,61,42,79,41,41,43,41,43,41,41,43,41,41,80,42,61,43,41,41,41,61,81,41,61,41,41,61,41,42,41,41,62,42,60,42,60,42,43,60,41,41,43,60,41,41,41,41,41,63,0,0,
0,0,59,43,42,80,43,60,43,41,60,41,101,99,99,99,99,97,41,42,43,43,43,41,41,43,41,79,41,80,41,43,43,41,41,60,79,41,42,42,41,60,60,41,41,79,41,43,60,62,101,99,99,99,99,97,43,79,79,41,60,97,42,41,43,63,0,0,
0,0,59,41,79,79,41,81,41,41,79,41,25,23,23,23,23,21,81,43,60,42,43,60,60,80,41,43,41,62,60,60,42,60,60,43,80,41,61,41,41,79,80,80,43,42,79,42,79,60,25,23,23,23,23,21,62,62,81,42,43,59,41,81,41,63,0,0,
0,0,59,41,41,41,42,43,60,81,79,41,61,41,41,42,41,41,41,41,62,43,41,42,43,60,42,41,42,60,43,43,81,62,101,99,97,42,42,41,80,43,79,43,41,42,41,62,42,41,41,42,60,41,61,43,79,60,41,41,81,59,41,41,43,63,0,0,
0,0,59,60,43,60,60,79,41,62,60,43,41,42,81,79,79,42,42,79,41,41,60,60,62,41,41,101,97,60,81,43,60,41,63,210,59,80,79,61,41,41,43,80,60,81,43,41,81,41,80,79,43,41,42,41,41,41,81,42,43,59,79,43,42,63,0,0,
0,0,59,42,41,41,60,79,41,61,41,41,62,43,41,41,43,41,60,79,43,80,41,42,41,41,41,63,59,41,42,60,41,41,25,23,21,81,43,42,41,79,60,79,42,41,41,41,43,60,61,41,60,41,42,41,79,79,41,79,80,59,41,43,41,63,0,0,
0,0,59,41,80,42,41,43,60,43,79,41,41,81,80,60,60,41,101,97,79,41,41,80,41,42,42,63,59,80,41,60,61,41,42,41,79,43,60,80,41,79,41,43,41,80,42,43,43,79,79,60,79,79,41,62,41,41,42,43,79,59,43,41,79,63,0,0,
0,0,59,42,79,62,41,41,61,41,42,41,41,41,41,81,41,41,63,59,62,60,43,79,81,79,62,25,21,42,43,42,61,41,43,60,60,41,81,41,41,41,41,61,43,41,60,43,41,61,61,41,60,79,41,80,42,60,41,62,41,21,41,41,41,63,0,0,
0,0,59,79,61,61,61,41,79,61,41,79,42,79,43,43,81,43,25,21,60,43,41,79,43,61,79,41,42,79,41,42,62,41,41,79,41,41,61,62,43,62,43,79,81,81,42,79,60,61,41,41,80,60,43,43,80,43,41,41,41,41,79,80,41,63,0,0,
0,0,59,41,81,79,41,41,43,43,42,42,79,60,41,41,62,41,41,42,79,60,41,43,41,41,41,41,41,79,81,41,79,62,42,79,43,43,43,101,97,62,80,101,97,41,80,41,43,79,41,60,43,43,41,97,41,60,62,41,43,61,43,60,60,63,0,0,
0,0,59,41,43,60,42,79,41,41,41,101,99,97,79,43,42,42,79,42,60,79,42,62,41,61,41,41,60,79,42,60,41,41,60,80,61,41,42,63,59,42,61,63,59,41,43,43,79,41,60,42,79,41,41,59,41,41,42,79,43,41,80,41,41,63,0,0,
0,0,59,41,80,41,41,60,62,41,43,63,210,59,41,41,43,81,81,41,60,41,60,61,41,43,41,81,79,42,60,41,80,41,42,43,43,79,41,25,21,60,80,25,21,42,43,62,60,60,79,41,42,43,60,59,79,41,80,43,81,41,42,41,41,63,0,0,
0,0,59,41,41,79,80,60,79,60,42,25,23,21,79,41,60,41,43,43,41,42,41,41,41,79,43,62,41,79,101,97,41,43,101,97,42,79,42,41,41,42,42,42,62,60,41,60,79,97,41,42,62,41,62,21,43,41,60,41,42,79,60,41,41,63,0,0,
0,0,59,80,62,42,42,80,42,42,60,79,62,62,60,60,41,41,41,41,42,81,43,42,79,41,43,41,41,41,25,21,41,81,25,21,43,42,41,43,43,61,43,41,81,79,41,42,79,59,41,41,60,42,41,41,41,79,79,60,42,41,79,41,43,63,0,0,
0,0,59,61,61,60,43,43,42,79,41,81,62,41,79,60,62,62,41,41,62,42,79,41,41,41,43,62,79,41,43,62,41,60,41,41,41,79,62,60,41,42,60,42,41,60,43,79,41,59,42,41,41,60,41,41,43,60,41,41,41,97,79,43,60,63,0,0,
0,0,59,42,41,41,41,43,81,80,60,41,42,42,41,60,60,41,60,43,43,101,23,23,21,81,41,42,41,62,42,42,42,60,79,41,79,41,80,42,41,41,41,41,60,41,43,42,62,59,60,41,79,60,41,80,41,42,60,41,41,59,41,80,60,63,0,0,
0,0,59,41,41,41,41,79,42,79,60,79,81,41,101,97,43,41,41,41,43,59,41,61,60,60,42,62,41,42,41,60,41,41,41,80,43,61,42,79,41,79,42,62,62,43,41,60,43,59,79,42,41,41,60,61,60,41,41,60,43,59,42,41,41,63,0,0,
0,0,59,41,42,41,101,97,41,41,60,79,41,42,25,21,43,43,61,60,41,59,61,43,79,42,42,42,41,60,41,61,41,79,43,42,41,41,41,41,62,79,41,41,41,42,60,41,62,59,43,41,60,41,41,41,60,61,25,23,23,21,81,60,80,63,0,0,
0,0,59,60,42,41,25,21,79,41,41,81,61,41,79,41,41,60,79,43,41,21,41,42,43,41,41,60,25,23,23,23,23,21,79,41,41,41,81,41,79,41,60,80,42,41,61,41,41,21,80,41,41,41,41,42,60,81,60,41,41,43,43,79,41,63,0,0,
0,0,59,41,41,81,42,42,61,62,41,42,41,41,41,62,41,41,43,41,41,41,41,79,41,41,41,41,41,42,41,41,41,41,41,41,42,41,41,41,42,41,43,79,41,43,41,81,62,79,43,42,41,43,60,60,43,61,43,41,60,41,41,41,41,63,0,0,
0,0,59,60,79,79,41,41,43,41,62,80,42,81,41,43,79,41,41,81,80,41,60,42,81,79,41,61,43,60,43,60,62,41,41,41,41,62,41,60,60,43,41,42,41,43,79,42,62,79,42,41,41,43,79,41,43,41,60,41,41,62,79,41,79,63,0,0,
0,0,59,41,41,42,42,80,42,81,41,41,60,43,41,41,61,60,60,79,80,41,41,41,81,80,41,42,41,79,41,41,41,41,62,41,60,60,79,41,41,41,42,43,41,41,41,61,41,41,42,81,41,80,41,41,81,41,61,41,41,79,79,41,41,63,0,0,
0,0,97,99,99,99,99,99,99,99,99,99,99,99,99,99,99,99,99,99,99,99,99,99,99,99,99,99,99,99,99,99,99,99,99,99,99,99,99,99,99,99,99,99,99,99,99,99,99,99,99,99,99,99,99,99,99,99,99,99,99,99,99,99,99,101,0,0,
0,0,0,0,0,0,0,0,0,0,0,0,0,0,0,0,0,0,0,0,0,0,0,0,0,0,0,0,0,0,0,0,0,0,0,0,0,0,0,0,0,0,0,0,0,0,0,0,0,0,0,0,0,0,0,0,0,0,0,0,0,0,0,0,0,0,0,0,
0,0,0,0,0,0,0,0,0,0,0,0,0,0,0,0,0,0,0,0,0,0,0,0,0,0,0,0,0,0,0,0,0,0,0,0,0,0,0,0,0,0,0,0,0,0,0,0,0,0,0,0,0,0,0,0,0,0,0,0,0,0,0,0,0,0,0,0
</data>
 </layer>
 <objectgroup id="2" name="Kollision">
  <object id="1" name="Block_01_1" x="544" y="96" width="96" height="16" />
  <object id="2" name="Block_02_1" x="736" y="96" width="16" height="64" />
  <object id="3" name="Block_02_2" x="688" y="144" width="48" height="16" />
  <object id="4" name="Block_03_1" x="960" y="96" width="32" height="32" />
  <object id="5" name="Block_04_1" x="832" y="112" width="32" height="32" />
  <object id="6" name="Block_05_1" x="512" y="176" width="32" height="32" />
  <object id="7" name="Block_06_1" x="576" y="176" width="32" height="32" />
  <object id="8" name="Block_07_1" x="864" y="192" width="48" height="48" />
  <object id="9" name="Block_08_1" x="368" y="208" width="32" height="48" />
  <object id="10" name="Block_09_1" x="432" y="208" width="32" height="48" />
  <object id="11" name="Block_10_1" x="768" y="256" width="32" height="48" />
  <object id="12" name="Block_11_1" x="528" y="272" width="48" height="64" />
  <object id="13" name="Block_12_1" x="624" y="272" width="32" height="64" />
  <object id="14" name="Block_13_1" x="192" y="352" width="96" height="32" />
  <object id="15" name="Block_14_1" x="800" y="352" width="96" height="32" />
  <object id="16" name="Block_15_1" x="976" y="352" width="16" height="112" />
  <object id="17" name="Block_16_1" x="544" y="384" width="48" height="48" />
  <object id="18" name="Block_17_1" x="432" y="400" width="32" height="64" />
  <object id="19" name="Block_18_1" x="288" y="432" width="32" height="48" />
  <object id="20" name="Block_19_1" x="624" y="480" width="32" height="48" />
  <object id="21" name="Block_20_1" x="688" y="480" width="32" height="48" />
  <object id="22" name="Block_21_1" x="880" y="480" width="16" height="64" />
  <object id="23" name="Block_22_1" x="176" y="496" width="48" height="48" />
  <object id="24" name="Block_23_1" x="480" y="528" width="32" height="32" />
  <object id="25" name="Block_24_1" x="544" y="528" width="32" height="32" />
  <object id="26" name="Block_25_1" x="784" y="528" width="16" height="112" />
  <object id="27" name="Block_26_1" x="976" y="560" width="16" height="64" />
  <object id="28" name="Block_26_2" x="928" y="608" width="48" height="16" />
  <object id="29" name="Block_27_1" x="336" y="576" width="64" height="16" />
  <object id="30" name="Block_27_2" x="336" y="592" width="16" height="48" />
  <object id="31" name="Block_28_1" x="224" y="592" width="32" height="32" />
  <object id="32" name="Block_29_1" x="96" y="608" width="32" height="32" />
  <object id="33" name="Block_30_1" x="448" y="624" width="96" height="16" />
  <object id="34" name="Mauer_Nord" x="32" y="32" width="1024" height="16" />
  <object id="35" name="Mauer_Sued" x="32" y="688" width="1024" height="16" />
  <object id="36" name="Mauer_West" x="32" y="48" width="16" height="640" />
  <object id="37" name="Mauer_Ost" x="1040" y="48" width="16" height="640" />
  <object id="38" name="Safezone_Querwand" x="48" y="240" width="272" height="16" />
  <object id="39" name="Safezone_Torwand_Oben" x="304" y="48" width="16" height="48" />
  <object id="40" name="Safezone_Torwand_Unten" x="304" y="128" width="16" height="112" />
 </objectgroup>
 <objectgroup id="3" name="Spawns">
  <object id="41" name="Spawn" x="648" y="56">
   <point />
  </object>
  <object id="42" name="Spawn" x="744" y="56">
   <point />
  </object>
  <object id="43" name="Spawn" x="840" y="72">
   <point />
  </object>
  <object id="44" name="Spawn" x="920" y="72">
   <point />
  </object>
  <object id="45" name="Spawn" x="1032" y="88">
   <point />
  </object>
  <object id="46" name="Spawn" x="1016" y="168">
   <point />
  </object>
  <object id="47" name="Spawn" x="1032" y="312">
   <point />
  </object>
  <object id="48" name="Spawn" x="1032" y="392">
   <point />
  </object>
  <object id="49" name="Spawn" x="72" y="472">
   <point />
  </object>
  <object id="50" name="Spawn" x="1032" y="472">
   <point />
  </object>
  <object id="51" name="Spawn" x="1016" y="552">
   <point />
  </object>
  <object id="52" name="Spawn" x="72" y="584">
   <point />
  </object>
  <object id="53" name="Spawn" x="200" y="648">
   <point />
  </object>
  <object id="54" name="Spawn" x="296" y="648">
   <point />
  </object>
  <object id="55" name="Spawn" x="376" y="648">
   <point />
  </object>
  <object id="56" name="Spawn" x="568" y="648">
   <point />
  </object>
  <object id="57" name="Spawn" x="744" y="648">
   <point />
  </object>
  <object id="58" name="Spawn" x="856" y="648">
   <point />
  </object>
  <object id="59" name="Spawn" x="1016" y="648">
   <point />
  </object>
  <object id="60" name="Spawn" x="456" y="664">
   <point />
  </object>
  <object id="61" name="Spawn" x="664" y="664">
   <point />
  </object>
  <object id="62" name="Spawn" x="936" y="664">
   <point />
  </object>
  <object id="63" name="Spawn" x="72" y="680">
   <point />
  </object>
 </objectgroup>
</map>